X:11602
T:Myr Vilhelms hambo
R:Hambopolska frn ppelbo
A:ppelbo, Dalarna
O:Sweden
M:3/4
L:1/8
Q:1/4=146
K:D
"D"f2 (f>e) d>f|"A"(f>e) (e>c) A>A|"A7"a2 (a>g) g>b|"D"(b>a) (a>f) d>e|\
"D"f2 (f>e) d>f|"A"(f>e) (e>c) A>A|"A7"g2 (g>e) c>e|"D"(c<d) d4::\
"D"((3ABA) (F>A) d>c|"G"B2 B>d g2|"A7"A2 (A>c) e>c|"D"d2 (d>f) a2|\
"D"((3ABA) (F>A) d>c|"G"B2 B>d g2|"A7"A2 (A>c) e>c|[1"D"(c<d) d4:|\
[2"D"(c<d) d3f|:\
"D"((3aba) (f>d) c>B|"A"A2 c>e a2|"A7"((3aba) (g>f) e>f|\
"D"((3gag) (f>e) d>f|\
"D"((3aba) (f>d) c>B|"A"A2 c>e a2|"A7"((3aba) (g>e) c>e|[1"D"(c<d) d3f:|
[2"D"(c<d) d4|]
